!!!COM: Bach, Johann Sebastian
!!!CDT: 1685/02/21/-1750/07/28/
!!!OPR: Partita for solo violin, No. 1 in D Major
!!!OTL: Movement 8: Double
!!!ODT: 1720///
**kern
*>[A,A,B,B]
*>norep[A,B]
*>A
*Ivioln
*clefG2
*k[f#c#]
*met(C|)
*M2/2
*MM144
8b\L
8dd\
8ff#\J
=1
8bb\L
8ff#\
8dd\
8b\J
8dd\L
8ff#\
8bb\
8ff#\J
=2
8gg\L
8ff#\
8ee\
8dd\J
8cc#\L
8b\
8a#\
8gg\J
=3
8ff#\L
8dd\
8cc#\
8ee\J
8dd/L
8b/
8f#/
8cc#/J
=4
(8ee\L
8dd\)
(8cc#\
8dd\J)
8b/L
8f#/
8b/
8cc#/J
=5
8dd/L
8b/
8f#/
8d/J
8B/L
8d/
8g/
8b/J
=6
(8cc#/L
8g/
8A/)
8g/J
8cc#\L
8ee\
8aa\
8ee\J
=7
8cc#/L
8a/
8e/
8c#/J
8A/L
8c#/
8f#/
8a/J
=8
(8b/L
8f#/
8G/)
8f#/J
8b\L
8dd\
8ff#\
8aa\J
=9
8bb\L
8gg\
8ee\
8gg\J
8ee\L
8cc#\
8ee\
8cc#\J
=10
8g\L
8a\
8b\
8cc#\J
8dd\L
8ee\
8ff#\
8gg\J
=11
8aa\L
8f#\
8a\
8dd\J
8g\L
8ee\
8a\
8cc#\J
=12
(8dd/L
8a/
8B/)
8a/J
8dd\L
8bb\
8dd\
8g#\J
=13
(8cc#/L
8g/
8A/)
8g/J
8cc#\L
8aa\
8cc\
8f#\J
=14
8g/L
8b/
8dd/
8f#/J
8e/L
8cc#/
8dd/
8ee/J
=15
(8g/L
8f#/
8e/
8d/J
8c#/L)
8ee\
8ff#\
8gg\J
=16
(8e/L
8d/
8c#/
8B/J
8A/L)
8gg\
8aa\
8bb\J
=17
8ccc#\L
8ddd\
8eee\
8ddd\J
8ccc#\L
8bb\
8aa\
8gg\J
=18
8ff#\L
8ee\
8gg\
8ff#\J
8ee\L
8dd\
8cc#\
8b\J
=19
8a/L
8g/
8f#/
8dd/J
8e/L
8dd/
8A/
8cc#/J
=20
8dd/L
8d/
8f#/
8a/J
8dd\
=:|!|:
*>B
8ff#\L
8aa\
*^
8ff#/	8dd\J
=21	=21
4ee/	8cc#\L
.	8a\
4ff#/	8dd\
.	8a\J
4gg/	8ee\L
.	8a\
4ff#/	8dd\
.	8a\J
=22	=22
*	*^
8ee/L	4a\	4cc#\
8dd/	.	.
*v	*v	*v
8cc#/
8dd/J
8ee/L
8g/
8f#/
8dd/J
=23
*^
4cc#/	8e\L
.	8A\
4dd/	8f#\
.	8A\J
4ee/	8g\L
.	8A\
4dd/	8f#\
.	8A\J
=24	=24
*	*^
8cc#/L	8e/	8A\
*v	*v	*v
8b/
8a/
8b/J
8cc#/L
8a/
8f#/
8dd#/J
=25
8ee\L
8b\
8gg\
8A/J
8B/L
8gg\
8ff#\
8dd#\J
=26
(8ee\L
8dd#\
8ee\)
8cc\J
8b/L
8a/
8g/
8f#/J
=27
(8g\L
8b\
8ee\)
8bb\J
(8aa\L
8gg\)
(8ff#\
8ee\J)
=28
8ee\L
8b\
8g\
8b\J
8e\L
8b\
8gg\
8dd\J
=29
8cc#\L
8ee\
8a\
8g\J
8f#\L
8aa\
8gg\
8e\J
=30
8d\L
8gg\
8ff#\
8ee\J
8dd\L
8ff#\
8bb\
8dd\J
=31
8e#\L
8cc#\
8gg#\
8bb\J
8aa\L
8cc#\
8f#\
8aa\J
=32
8gg#\L
8ff#\
8ee#\
8dd#\J
8cc#\L
8gg#\
8aa\
8bb\J
=33
8ccc#\L
8ee\
8b\
8ee\J
8a#\L
8ee\
8ccc#\
8ee\J
=34
8b\L
8ee\
8dd\
8cc#\J
8dd\L
8ff#\
8gg#\
8aa\J
=35
8bb\L
8dd\
8a\
8dd\J
8g#/L
8dd/
8f#/
8dd/J
=36
8e#/L
8g#/
8cc#/
8dd#/J
8ee#\L
8ff#\
8gg#\
8aa\J
=37
(8bb\L
8aa\)
(8gg#\
8ff#\J)
8cc#\L
(16aa\L
16gg#\J)
8ff#\
8ee#\J
=38
8ff#\L
8b\
8a\
8g#\J
8f#/L
8e/
8d#/
8c#/J
=39
8B/L
8d#/
8f#/
8a/J
8cc\L
8dd#\
8ff#\
8aa\J
=40
8e\L
8aa\
8gg\
8ff#\J
8gg\L
8d/
8c#/
8B/J
=41
8A/L
8c#/
8e/
8g/J
8b-\L
8cc#\
8ee\
8gg\J
=42
8d/L
8gg\
8ff#\
(8ee\J
8dd\L
8cc#\)
8ee\
8b\J
=43
(8b\L
8a#\)
8ee\
8a\J
(8a\L
8g#\)
8ee\
8g\J
=44
8g/L
8f#/
8e/
8d#/J
8e/L
8g/
8f#/
8e/J
=45
8d/L
8B/
8d/
8f#/J
8g/L
8a#/
8b/
8cc#/J
=46
8f#/L
8dd/
8cc#/
8b/J
8a#/L
8cc#/
8f#/
8g#/J
=47
8a#\L
8b\
8cc#\
8dd\J
8ee\L
8ff#\
8gg\
8ff#\J
=48
(8gg\L
8ee\
8a#\)
8ee\J
(8gg\L
8ee\)
(8gg\
8ee\J)
=49
(8gg\L
8ee\
8a#\)
8b\J
8cc#\L
8dd\
8ee\
8ff#\J
=50
(8gg#\L
8ee#\
8b\)
8ee#\J
8gg#\L
8ee#\
8gg#\
8ee#\J
=51
(8gg#\L
8ee#\
8b\)
8cc#\J
8dd\L
8ee#\
8ff#\
8gg#\J
=52
8aa#\L
8ee\
8cc#\
8dd\J
8ee\L
8ff#\
8gg#\
8aa#\J
=53
8bb\L
8ccc#\
8ddd\
8bb\J
8ff#\L
8bb\
8ccc#\
8aa#\J
=54
8bb\L
8ff#\
8ee\
8cc#\J
(8dd\L
8b\
8a#\)
8b\J
=55
(8G/L
8dd\
8cc#\)
8b\J
(8a#\L
8b\)
(8ee\
8b\J)
=56
(8ff#\L
8dd\
8cc#\)
8b\J
(8a#/L
8b/)
(8f#/
8g/J)
=57
8a/L
(8cc/
8b/
8a/J)
8d#/L
(8a/
8g/
8f#/J)
=58
8e/L
8b/
8cc#/
8dd/J
8ee\L
8ff#\
8gg#\
8ee\J
=59
8b\L
8dd\
8cc#\
8b\J
8e#/L
8b/
8a#/
8g#/J
=60
8f#\L
8cc#\
8dd\
8ee\J
8ff#\L
8gg#\
8aa#\
8bb\J
=61
(8ccc#\L
8ee\
8a#\)
8ee\J
8ccc#\L
8ee\
8ccc#\
8ee\J
=62
(8ccc#\L
8ee\
8a#\)
8b\J
8cc#\L
8dd\
8ee\
8ff#\J
=63
8gg\L
8aa\
8gg\
8ff#\J
8ee\L
8dd\
8cc#\
8b\J
=64
8aa#\L
8bb\
8aa#\
8gg#\J
8ff#\L
8ee\
8dd\
8cc#\J
=65
8dd\L
8b\
8dd\
8ff#\J
8bb\L
8ff#\
8dd\
8b\J
=66
8gg\L
8ff#\
8ee\
8dd\J
8cc#\L
8b\
8a#\
8gg\J
=67
8ff#\L
8dd\
8cc#\
8ee\J
8dd/L
8b/
8f#/
8a#/J
=68
2B/
8r
==:|!;
*-
!!!ENC: Craig Sapp
!!!END: 2004/05/06/
